!!!!SEGMENT: pl-sa--234-a-vi-38--002_bach-johann-christian--sinfonia-ex-b-andante.krn
!!!cenid: 17xx:1805
!!!COM: Bach, Johann Christian
!!!COM-rismID: pe2530
!!!CDT: 1735/09/05-1782/01/01
!!!CNT: German
!!!OPR: Sinfonia ex B
!!!OTL: Andante
!!!PDT:
!!!AGN: Secular
!!!SMS-siglum: PL-SA
!!!SMS-shelfmark: 234/A VI 38
!!!SMS-shelfwork: 002 M
!!!SMS-variant:
!!!SMS-altvar:
!!!NIFC-rismSourceID: 1001035159
!!!NIFC-rismChildID: 1001035159
!!!NIFC-islandoraID:
!!!URL-pdf-islandora:
!!!URL-scan: https://bc.bdsandomierz.pl/dlibra/publication/1605/edition/1573/content @EN{Scan in the Sandomierz Diocese Digital Library} @PL{Skany w portalu Cyfrowa Biblioteka Diecezjalna w Sandomierzu}
!!!ONB-nifc: UWAGA: części Sinfonii: 1. Allegro, 2. Andante, 3. Presto. Uwaga: partia Basso niekompletna
!!!OMD: Andante
!!!AIN: 1 cbass 2 cor 1 viola 2 violn
!!!key: E-
**kern	**dynam	**kern	**dynam	**kern	**dynam	**kern	**dynam	**kern	**kern
*part6	*part6	*part5	*part5	*part4	*part4	*part3	*part3	*part2	*part1
*staff6	*	*staff5	*	*staff4	*	*staff3	*	*staff2	*staff1
*I"Baſso	*	*I"Alto Viola	*	*I"Violino Secondo	*	*I"Violino 1mo	*	*I"Cornu 2do	*I"Cornu 1mo
*I'b (=bc)	*	*I'a-vla	*	*I'vl 2	*	*I'vl 1	*	*I'cor 2	*I'cor 1
*Icbass	*	*Iviola	*	*Ivioln	*	*Ivioln	*	*Icor	*Icor
*ICstr	*	*ICstr	*	*ICstr	*	*ICstr	*	*ICbras	*ICbras
*clefF4	*	*clefC3	*	*clefG2	*	*clefG2	*	*clefG2	*clefG2
*	*	*	*	*	*	*	*	*ITrd4c7	*ITrd4c7
*	*	*ok[e-b-a-]	*	*ok[e-b-a-]	*	*ok[e-b-a-]	*	*	*
*k[b-e-a-]	*	*k[b-e-a-]	*	*k[b-e-a-]	*	*k[b-e-a-]	*	*k[b-e-a-]	*k[b-e-a-]
*E-:	*	*E-:	*	*E-:	*	*E-:	*	*E-:	*E-:
*M3/4	*	*M3/4	*	*M3/4	*	*M3/4	*	*M3/4	*M3/4
*all\right	*	*all\right	*	*all\right	*	*all\right	*	*	*
*>[A,A,B,B]	*	*>[A,A,B,B]	*	*>[A,A,B,B]	*	*>[A,A,B,B]	*	*>[A,A,B,B]	*>[A,A,B,B]
=1	=1	=1	=1	=1	=1	=1	=1	=1	=1
*>A	*	*>A	*	*>A	*	*>A	*	*>A	*>A
!LO:TX:a:t=Andante	!LO:DY:a:t=p.:rj	!LO:TX:a:t=Andante	!LO:DY:a	!LO:TX:a:t=Andanta	!	!LO:TX:a:t=Andante	!LO:DY:a	!LO:TX:t=P:problem=brak partii cor 2	!LO:TX:t=P:problem=brak partii cor 1
8E-\L	p	8e-\L	p	4.B-/	.	4.g/	p	2.ryy	2.ryy
8E-\	.	8e-\	.	.	.	.	.	.	.
8E-\	.	8e-\	.	.	.	.	.	.	.
8E-\	.	8e-\	.	8c/	.	8a-/	.	.	.
8E-\	.	8e-\	.	4B-/	.	4g/	.	.	.
8E-\J	.	8e-\J	.	.	.	.	.	.	.
=2	=2	=2	=2	=2	=2	=2	=2	=2	=2
8E-\L	.	8e-\L	.	4.d-X/	.	4.b-\	.	2.ryy	2.ryy
8E-\	.	8e-\	.	.	.	.	.	.	.
8E-\	.	8e-\	.	.	.	.	.	.	.
8E-\	.	8e-\	.	8f/L	.	8dd-X\L	.	.	.
8E-\	.	8e-\	.	8e-/	.	8cc\	.	.	.
8E-\J	.	8e-\J	.	8d-X/J	.	8b-\J	.	.	.
=3	=3	=3	=3	=3	=3	=3	=3	=3	=3
!	!	!	!	!LO:SIC:v:s=8d-/L	!	!	!	!	!
8AA-/	.	8A-/	.	8d/L	.	8b-/L	.	2.ryy	2.ryy
8r	.	8r	.	8c/	.	8a-/	.	.	.
8BB-/	.	8B-/	.	8c/	.	8a-/	.	.	.
8r	.	8r	.	8B-/	.	8g/	.	.	.
8C/	.	8B-/	.	8B-/	.	8g/	.	.	.
8r	.	8r	.	8A-/J	.	8f/J	.	.	.
=4	=4	=4	=4	=4	=4	=4	=4	=4	=4
8E-\	.	4E-/	.	16A-/LL	.	16f/LL	.	2.ryy	2.ryy
.	.	.	.	16G/	.	16e-/	.	.	.
8r	.	.	.	16B-/	.	16g/	.	.	.
.	.	.	.	16A-/JJ	.	16f/JJ	.	.	.
8r	.	4r	.	4G/	.	4e-/	.	.	.
8F\L	.	.	.	.	.	.	.	.	.
(8D\	.	4r	.	4r	.	4r	.	.	.
8C\J)	.	.	.	.	.	.	.	.	.
=5	=5	=5	=5	=5	=5	=5	=5	=5	=5
!	!	!	!	!	!	!LO:TX:a:t=1	!	!	!
2.BB-/	.	8.f\L	.	(8b-\L	.	2.r	.	2.ryy	2.ryy
.	.	.	.	8b-\	.	.	.	.	.
.	.	32g\LL	.	.	.	.	.	.	.
.	.	32a-\JJJ	.	.	.	.	.	.	.
.	.	4a-\	.	8b-\	.	.	.	.	.
.	.	.	.	8b-\	.	.	.	.	.
.	.	4g\	.	8b-\)	.	.	.	.	.
.	.	.	.	8b-\J	.	.	.	.	.
=6	=6	=6	=6	=6	=6	=6	=6	=6	=6
*	*	*2\right	*	*	*	*	*	*	*
8BB-/L	.	2d\	.	8b-\L	.	8.ff\L	.	2.ryy	2.ryy
8BB-/	.	.	.	8b-\	.	.	.	.	.
.	.	.	.	.	.	32gg\LL	.	.	.
.	.	.	.	.	.	32aa-\JJJ	.	.	.
8BB-/	.	.	.	8b-\	.	4aa-\	.	.	.
8BB-/	.	.	.	8b-\	.	.	.	.	.
8E-/	.	8e-\L	.	8b-\	.	8gg\L	.	.	.
8E-/J	.	8e-\J	.	8b-\J	.	8ee-\J	.	.	.
=7	=7	=7	=7	=7	=7	=7	=7	=7	=7
!LO:TX:t=P:problem=mixed beam	!	!	!	!	!LO:DY:a	!	!	!	!
.	.	.	.	8qqb-/	f	8qqdd/	.	.	.
8A-\L	.	8A-/L	.	8a-/L	.	8cc\L	.	2.ryy	2.ryy
8A-\	.	8A-/	.	16g/L	.	16b-\L	.	.	.
.	.	.	.	16f/JJ	.	16a-\JJ	.	.	.
!	!	!	!LO:DY:a:t=fro	!	!	!	!	!	!
8B-\	.	8B-/	f	4e-/	.	4g/	.	.	.
8B-\	.	8B-/	.	.	.	.	.	.	.
8BB-/	.	8B-/	.	4dt/	.	4fT/	.	.	.
8BB-/J	.	8B-/J	.	.	.	.	.	.	.
=8	=8	=8	=8	=8	=8	=8	=8	=8	=8
!	!LO:DY:a	!	!	!	!	!	!	!	!
8E-\L	p	4e-\	.	4e-/	.	4e-/	.	2.ryy	2.ryy
8E-\	.	.	.	.	.	.	.	.	.
8E-\	.	4r	.	8r	.	8r	.	.	.
!	!	!	!	!	!LO:DY:a:t=p.	!	!	!	!
8E-\	.	.	.	16e-/LL	p	16g/LL	.	.	.
.	.	.	.	16f/JJ	.	16a-/JJ	.	.	.
8E-\	.	4r	.	8g/L	.	8b-'/L	p	.	.
8E-\J	.	.	.	8g/J	.	8b-'/J	.	.	.
=9	=9	=9	=9	=9	=9	=9	=9	=9	=9
!	!	!	!	!	!LO:DY:a:t=f.	!	!	!	!
8BB-/L	.	2.B-/	.	8.g/L	f	8.b-/L	f	2.ryy	2.ryy
8BB-/	.	.	.	.	.	.	.	.	.
.	.	.	.	16e-/Jk	.	16g/Jk	.	.	.
!	!	!	!	!LO:TX:t=P:problem=mixed beam	!	!LO:TX:t=P:problem=mixed beam	!	!	!
8BB-/	.	.	.	8d/L	.	8f/L	p	.	.
8BB-/	.	.	.	8dd\	.	8ff\	.	.	.
8BB-/	.	.	.	8ff\	.	8aa-\	.	.	.
8BB-/J	.	.	.	8f/J	.	8a-/J	.	.	.
!LO:LB:g=original	!	!LO:LB:g=original	!	!	!	!	!	!	!
=10	=10	=10	=10	=10	=10	=10	=10	=10	=10
!	!	!	!	!	!	!LO:TX:t=P:problem=t.10-11 zapisane repetycją	!	!	!
8E-\L	.	4B-/	.	8e-/L	.	4e-/	.	2.ryy	2.ryy
8E-\	.	.	.	8g/J	.	.	.	.	.
8E-\	.	4r	.	8r	.	8r	.	.	.
8E-\	.	.	.	16e-/LL	.	16g/LL	.	.	.
.	.	.	.	16f/JJ	.	16a-/JJ	.	.	.
8E-\	.	4r	.	8g/L	.	8b-'/L	p	.	.
8E-\J	.	.	.	8g/J	.	8b-'/J	.	.	.
!	!	!	!	!LO:LB:g=original	!	!	!	!	!
=11	=11	=11	=11	=11	=11	=11	=11	=11	=11
!	!LO:DY:a:t=f.	!	!	!	!	!	!	!	!
8BB-/L	f	2.B-/	.	8.g/L	.	8.b-/L	f	2.ryy	2.ryy
8BB-/	.	.	.	.	.	.	.	.	.
.	.	.	.	16e-/Jk	.	16g/Jk	.	.	.
!	!	!	!	!LO:TX:t=P:problem=mixed beam	!	!LO:TX:t=P:problem=mixed beam	!	!	!
8BB-/	.	.	.	8d/L	.	8f/L	p	.	.
8BB-/	.	.	.	8dd\	.	8ff\	.	.	.
!	!LO:DY:a:t=p.	!	!	!	!	!	!	!	!
8BB-/	p	.	.	8ff\	.	8aa-\	.	.	.
8BB-/J	.	.	.	8f/J	.	8a-/J	.	.	.
!	!	!	!	!	!	!LO:LB:g=original	!	!	!
=12	=12	=12	=12	=12	=12	=12	=12	=12	=12
!	!LO:DY:a	!	!	!	!LO:DY:b:t=f.	!LO:TX:t=P:problem=mixed beam	!	!	!
8E-\L	f	8B-/L	.	8e-/L	f	8g/L	.	2.ryy	2.ryy
!	!	!	!	!	!	!LO:N:vis=8	!	!	!
8E-\	.	8B-/	.	16r	.	16r	.	.	.
.	.	.	.	16g/Jk	.	16ee-\Jk	.	.	.
8G\	.	8B-/	.	8B-/L 8g	.	8ee-\L	.	.	.
8G\	.	8B-/	.	16r	.	16r	.	.	.
.	.	.	.	16e-/Jk	.	16b-\Jk	.	.	.
8E-\	.	8B-/	.	8B-/L 8g	.	8b-/L	.	.	.
!	!	!	!	!LO:N:vis=8	!	!	!	!	!
8E-\J	.	8B-/J	.	16r	.	16r	.	.	.
.	.	.	.	16e-/Jk	.	16g/Jk	.	.	.
=13	=13	=13	=13	=13	=13	=13	=13	=13	=13
.	.	.	.	8qqf/	.	.	.	.	.
4BB-/	.	4B-/	.	4e-/	.	4g/	f	2.ryy	2.ryy
8B-'\L	.	4r	.	4d/	.	4f/	.	.	.
8F'\	.	.	.	.	.	.	.	.	.
8D'\	.	4r	.	4r	.	4r	.	.	.
8BB-'\J	.	.	.	.	.	.	.	.	.
=14	=14	=14	=14	=14	=14	=14	=14	=14	=14
!	!LO:DY:a:t=p.	!	!	!	!LO:DY:a:t=p.	!	!	!	!
8FF/	p	8F/L	.	8An/L	p	2f/	p	2.ryy	2.ryy
8r	.	8G/	.	8B-/	.	.	.	.	.
4r	.	8An/	.	8c/	.	.	.	.	.
.	.	8B-/	.	8d/	.	.	.	.	.
!	!	!	!	!	!	!LO:TX:t=P:problem=mixed beam	!	!	!
4r	.	8c/	.	8e-/	.	8f/L	.	.	.
.	.	8A/J	.	8c/J	.	8ee-\J	.	.	.
=15	=15	=15	=15	=15	=15	=15	=15	=15	=15
8BB-/	.	8B-/L	.	8d/L	.	(16dd\LL	.	2.ryy	2.ryy
.	.	.	.	.	.	16cc\	.	.	.
8r	.	8c/	.	8e-/	.	16cc\)	.	.	.
.	.	.	.	.	.	16b-\JJ	.	.	.
4r	.	8d/	.	8f/	.	4.b-\	.	.	.
.	.	8e-/	.	8e-/	.	.	.	.	.
4r	.	8d/	.	8d/	.	.	.	.	.
.	.	8B-/J	.	8B-/J	.	(16dd\LL	.	.	.
.	.	.	.	.	.	16b-\JJ)	.	.	.
=16	=16	=16	=16	=16	=16	=16	=16	=16	=16
8FF/	.	8F/L	.	8An/L	.	4ff\	.	2.ryy	2.ryy
8r	.	8G/	.	8B-/	.	.	.	.	.
4r	.	8An/	.	8c/	.	[<4f/	.	.	.
.	.	8B-/	.	8d/	.	.	.	.	.
!	!	!	!	!	!	!LO:TX:t=P:problem=mixed beam	!	!	!
4r	.	8c/	.	8e-/	.	8f/L]	.	.	.
.	.	8A/J	.	8c/J	.	8ee-\J	.	.	.
=17	=17	=17	=17	=17	=17	=17	=17	=17	=17
8BB-/	.	8B-/L	.	8d/L	.	16dd\LL	.	2.ryy	2.ryy
.	.	.	.	.	.	16cc\	.	.	.
8r	.	8c/	.	8e-/	.	16cc\	.	.	.
.	.	.	.	.	.	16b-\JJ	.	.	.
4r	.	8d/	.	8f/	.	4b-\	.	.	.
.	.	8e-/	.	8g/	.	.	.	.	.
4r	.	8d/	.	8f/	.	4r	.	.	.
.	.	8B-/J	.	8d/J	.	.	.	.	.
=18	=18	=18	=18	=18	=18	=18	=18	=18	=18
!	!LO:DY:a	!	!	!	!LO:DY:a:t=f.	!	!	!	!
(8D\L	f	8B-/L	.	4.d/ 4.b- 4.ff	f	4.b-/ 4.bb-	f	2.ryy	2.ryy
8D\	.	8B-/	.	.	.	.	.	.	.
8D\	.	8B-/	.	.	.	.	.	.	.
8D\)	.	8B-/	.	8ff\L	.	8ff\L	.	.	.
.	.	.	.	8qqee-/	.	8qgg/	.	.	.
8D\	.	8B-/	.	8dd\	.	8ff\	.	.	.
.	.	.	.	8qqcc/	.	8qee-/	.	.	.
8D\J	.	8B-/J	.	8b-\J	.	8dd\J	.	.	.
=19	=19	=19	=19	=19	=19	=19	=19	=19	=19
8E-\L	.	8g\L	.	2.b-/	.	8.cc\L	.	2.ryy	2.ryy
8E-\	.	8g\	.	.	.	.	.	.	.
.	.	.	.	.	.	(32ee-\LL	.	.	.
.	.	.	.	.	.	32dd\JJJ)	.	.	.
8E-\	.	8g\	.	.	.	(8cc\L	.	.	.
8E-\	.	8g\	.	.	.	16cc\L	.	.	.
.	.	.	.	.	.	16ee-\JJ)	.	.	.
8F\	.	8f\	.	.	.	(8dd\L	.	.	.
8F\J	.	8f\J	.	.	.	16dd\L	.	.	.
.	.	.	.	.	.	16ff\JJ)	.	.	.
!LO:LB:g=original	!	!LO:LB:g=original	!	!	!	!	!	!	!
=20	=20	=20	=20	=20	=20	=20	=20	=20	=20
.	.	.	.	.	.	8qqff/	.	.	.
8B-\L	.	8e-\L	.	4b-/	.	8ee-\L	.	2.ryy	2.ryy
8B-\	.	8g\J	.	.	.	16dd\L	.	.	.
.	.	.	.	.	.	16cc\JJ	.	.	.
8F\	.	8d\L	.	4b-/	.	4b-/	.	.	.
8F\	.	8d\	.	.	.	.	.	.	.
8F\	.	8c\	.	4an/	.	4ant/	.	.	.
8F\J	.	8c\J	.	.	.	.	.	.	.
!	!	!	!	!LO:LB:g=original	!	!LO:LB:g=original	!	!	!
=21	=21	=21	=21	=21	=21	=21	=21	=21	=21
4BB-/	.	4d\	.	8b-/L	.	8b-\L	.	2.ryy	2.ryy
.	.	.	.	16f/L	.	16dd'\L	.	.	.
.	.	.	.	16f/JJ	.	16dd'\JJ	.	.	.
4r	.	4r	.	16f/LL	.	16dd\LL	.	.	.
.	.	.	.	16g/	.	16ee-\	.	.	.
.	.	.	.	16e-/	.	16cc'\	.	.	.
.	.	.	.	16e-/JJ	.	16cc'\JJ	.	.	.
4r	.	4r	.	16e-/LL	.	16cc\LL	.	.	.
.	.	.	.	16f/	.	16dd\	.	.	.
.	.	.	.	16d/	.	16b-'\	.	.	.
.	.	.	.	16d/JJ	.	16b-'\JJ	.	.	.
=22	=22	=22	=22	=22	=22	=22	=22	=22	=22
4F\	.	4f\	.	16d/LL	.	16b-\LL	.	2.ryy	2.ryy
.	.	.	.	16e-/J	.	16cc\J	.	.	.
.	.	.	.	8e-/J	.	8cc\J	.	.	.
4FF/	.	4f\	.	8e-/L	.	8cc\L	.	.	.
.	.	.	.	16g/L	.	16ee-\L	.	.	.
.	.	.	.	16f/JJ	.	16dd\JJ	.	.	.
4F\	.	4f\	.	16f/LL	.	16dd\LL	.	.	.
.	.	.	.	16e-/	.	16cc\	.	.	.
.	.	.	.	16d/	.	16b-\	.	.	.
.	.	.	.	16c/JJ	.	16an\JJ	.	.	.
=23	=23	=23	=23	=23	=23	=23	=23	=23	=23
!	!LO:DY:a	!	!	!	!LO:DY:b:t=p.	!	!LO:DY:a	!	!
4BB-/	p	4B-/	.	8d/L	p	8b-\L	p	2.ryy	2.ryy
.	.	.	.	16f/L	.	16dd\L	.	.	.
.	.	.	.	16f/JJ	.	16dd\JJ	.	.	.
4r	.	4r	.	16f/LL	.	(16dd\LL	.	.	.
.	.	.	.	16g/	.	16ee-\)	.	.	.
.	.	.	.	16e-/	.	16cc'\	.	.	.
.	.	.	.	16e-/JJ	.	16cc'\JJ	.	.	.
4r	.	4r	.	16e-/LL	.	16cc\LL	.	.	.
.	.	.	.	16f/	.	16dd\	.	.	.
.	.	.	.	16d/	.	16b-'\	.	.	.
.	.	.	.	16d/JJ	.	16b-'\JJ	.	.	.
=24	=24	=24	=24	=24	=24	=24	=24	=24	=24
4F\	.	4f\	.	16d/LL	.	16b-\LL	.	2.ryy	2.ryy
.	.	.	.	16e-/J	.	16cc\J	.	.	.
.	.	.	.	8e-/J	.	8cc\J	.	.	.
4FF/	.	4f\	.	8e-/L	.	8cc\L	.	.	.
.	.	.	.	16g/L	.	16ee-\L	.	.	.
.	.	.	.	16f/JJ	.	16dd\JJ	.	.	.
4F\	.	4f\	.	16f/LL	.	16dd\LL	.	.	.
.	.	.	.	16e-/	.	16cc\	.	.	.
.	.	.	.	16d/	.	16b-\	.	.	.
.	.	.	.	16c/JJ	.	16an\JJ	.	.	.
=25	=25	=25	=25	=25	=25	=25	=25	=25	=25
!LO:TX:t=P:problem=mixed beam	!	!	!	!	!	!	!	!	!
!	!	!	!	!	!LO:DY:a:t=f.	!	!LO:DY:a	!	!
8.B-\L	.	8.B-/L	.	8d/L	f	8b-/L	f	2.ryy	2.ryy
.	.	.	.	16f/L	.	16f/L	.	.	.
16BB-/Jk	.	16B-/Jk	.	16d/JJ	.	16d/JJ	.	.	.
4BB-/	.	4B-/	.	4B-/	.	4B-/	.	.	.
4r	.	4r	.	4r	.	4r	.	.	.
=26:|!|:	=26:|!|:	=26:|!|:	=26:|!|:	=26:|!|:	=26:|!|:	=26:|!|:	=26:|!|:	=26:|!|:	=26:|!|:
*>B	*	*>B	*	*>B	*	*>B	*	*>B	*>B
4BB-/	.	2.r	.	8dd\L	.	(8ff\L	.	2.ryy	2.ryy
.	.	.	.	8ff\J	.	8bb-\J)	.	.	.
4r	.	.	.	8dd\L	.	8ff'\L	.	.	.
.	.	.	.	8dd\J	.	8ff'\J	.	.	.
4r	.	.	.	8dd\L	.	8ff\L	.	.	.
.	.	.	.	16dd\L	.	(16gg\L	.	.	.
.	.	.	.	16cc\JJ	.	16ee-\JJ)	.	.	.
!	!	!	!	!	!	!LO:LB:g=original	!	!	!
=27	=27	=27	=27	=27	=27	=27	=27	=27	=27
.	.	.	.	.	.	8qqee-/	.	.	.
4BB-/	.	8f\L	.	4.b-/	.	4.dd\	.	2.ryy	2.ryy
.	.	8b-\J	.	.	.	.	.	.	.
4r	.	8f\L	.	.	.	.	.	.	.
.	.	8f\J	.	8b-/	.	8dd\	.	.	.
4r	.	8f\L	.	8b-/L	.	8dd\L	.	.	.
.	.	16f\L	.	16b-/L	.	(16ee-\L	.	.	.
.	.	16e-\JJ	.	16an/JJ	.	16cc\JJ)	.	.	.
!	!	!	!	!LO:LB:g=original	!	!	!	!	!
=28	=28	=28	=28	=28	=28	=28	=28	=28	=28
!	!	!	!	!	!LO:DY:a:t=f.	!	!	!	!
8B-\L	.	8d\L	.	8b-/L	f	8b-/L	.	2.ryy	2.ryy
8F\	.	8g\	.	16e-/L	.	16cc/L	.	.	.
!	!	!	!	!LO:N:vis=16	!	!LO:N:vis=16	!	!	!
.	.	.	.	32r	.	32r	.	.	.
.	.	.	.	32d/JJk	.	32an/JJk	.	.	.
!	!	!LO:SIC:v:s=8B-\	!	!	!	!	!	!	!
!	!	!LO:SIC:v:s=8D-\	!	!	!	!	!	!	!
8B-\	.	8c\	.	8d/L	.	8b-/L	.	.	.
8F\	.	8f\J	.	16e-/L	.	16cc/L	.	.	.
!	!	!	!	!LO:N:vis=16	!	!LO:N:vis=16	!	!	!
.	.	.	.	32r	.	32r	.	.	.
.	.	.	.	32c/JJk	.	32an/JJk	.	.	.
!	!	!	!	!LO:TX:t=P:problem=mixed beam	!	!LO:TX:t=P:problem=mixed beam	!	!	!
8B-\	.	8B-/L	.	8d/L	.	8b-/L	.	.	.
8BB-\J	.	8B-/J	.	8ff\J	.	8bb-\J	.	.	.
=29	=29	=29	=29	=29	=29	=29	=29	=29	=29
.	.	.	.	8qqff/	.	8qqaa-/	.	.	.
8E-\L	.	8B-/L	.	4ee-T\	.	4gg\	.	2.ryy	2.ryy
8E-\	.	8B-/J	.	.	.	.	.	.	.
8B-\	.	4B-/	.	4dd\	.	4ff\	.	.	.
8B-\	.	.	.	.	.	.	.	.	.
8B-\	.	4r	.	4r	.	4r	.	.	.
8A-\J	.	.	.	.	.	.	.	.	.
=30	=30	=30	=30	=30	=30	=30	=30	=30	=30
!	!	!	!	!	!LO:DY:a	!	!	!	!
4.G\	.	4G/ 4g	p	8ff\L	p	8.aa-X\L	.	2.ryy	2.ryy
.	.	.	.	8dd\J	.	.	.	.	.
.	.	.	.	.	.	16ff\Jk	.	.	.
.	.	16r	.	4dd\	.	4gg\	.	.	.
.	.	16g\LL	.	.	.	.	.	.	.
8G\L	.	16f#X\	.	.	.	.	.	.	.
.	.	16g\JJ	.	.	.	.	.	.	.
8Bn\	.	16f#\LL	.	4r	.	4r	.	.	.
.	.	16g\	.	.	.	.	.	.	.
8G\J	.	16f#\	.	.	.	.	.	.	.
.	.	16g\JJ	.	.	.	.	.	.	.
!	!	!LO:LB:g=original	!	!	!	!	!	!	!
=31	=31	=31	=31	=31	=31	=31	=31	=31	=31
!	!	!	!	!LO:N:vis=4	!	!	!	!	!
4.C/	.	4G/ 4g	.	(8ee-\	.	8.gg\L	.	2.ryy	2.ryy
!	!	!	!	!LO:N:vis=4	!	!	!	!	!
.	.	.	.	8cc\)	.	.	.	.	.
.	.	.	.	.	.	16ee-\Jk	.	.	.
.	.	16r	.	4cc\	.	4ff\	.	.	.
.	.	16g\LL	.	.	.	.	.	.	.
8C/L	.	16f#X\	.	.	.	.	.	.	.
.	.	16g\JJ	.	.	.	.	.	.	.
8E-/	.	16f#\LL	.	4r	.	4r	.	.	.
.	.	16g\	.	.	.	.	.	.	.
8C/J	.	16f#\	.	.	.	.	.	.	.
.	.	16g\JJ	.	.	.	.	.	.	.
!LO:LB:g=original	!	!	!	!	!	!	!	!	!
=32	=32	=32	=32	=32	=32	=32	=32	=32	=32
.	.	.	.	.	.	8qqbb-/	.	.	.
!	!LO:DY:a:rj	!	!LO:DY:a	!	!LO:DY:a:t=f.	!	!	!	!
8F\L	f	8fn\L	f	8ff\L	f	8aa-\L	.	2.ryy	2.ryy
8F\	.	8f\	.	16ee-\L	.	16gg\L	.	.	.
.	.	.	.	16dd\JJ	.	16ff\JJ	.	.	.
8G\	.	8g\	.	4cc\	.	4ee-\	.	.	.
8G\	.	8g\	.	.	.	.	.	.	.
8G\	.	8g\	.	4bnt\	.	4dd\	.	.	.
8G\J	.	8g\J	.	.	.	.	.	.	.
=33	=33	=33	=33	=33	=33	=33	=33	=33	=33
8C/L	.	8c/L	p	4cc/	.	4cc\	.	2.ryy	2.ryy
8C/	.	8c/	.	.	.	.	.	.	.
8C/	.	8c/	.	8r	.	8r	.	.	.
8C/	.	8c/	.	8cc/L	.	8ee-'\L	.	.	.
!	!	!	!	!	!LO:DY:b:t=p&colon;	!	!	!	!
8C/	.	8c/	.	8b-/	p	8dd'\	.	.	.
8C/J	.	8c/J	.	8a-/J	.	8cc'\J	.	.	.
=34	=34	=34	=34	=34	=34	=34	=34	=34	=34
8D/L	.	8d\L	.	4a-/	.	4cc/	.	2.ryy	2.ryy
8D/	.	8d\	.	.	.	.	.	.	.
8D/	.	8d\	.	8g/L	.	8b-/L	.	.	.
8D/	.	8d\	.	8a-/	.	8cc/	.	.	.
8D/	.	8d\	.	8g/	.	8b-/	.	.	.
8D/J	.	8d\J	.	8f/J	.	8a-/J	.	.	.
=35	=35	=35	=35	=35	=35	=35	=35	=35	=35
8E-\L	.	8e-\L	.	8f/L	.	8a-/L	.	2.ryy	2.ryy
8E-\	.	8e-\	.	8e-/J	.	8g/J	.	.	.
8E-\	.	8e-\	.	8r	.	8r	.	.	.
8E-\	.	8e-\	.	16b-\LL	.	16gg\LL	.	.	.
.	.	.	.	16cc\JJ	.	16aa-\JJ	.	.	.
8E-\	.	8e-\	.	8dd-X\L	.	8bb-\L	.	.	.
8E-\J	.	8e-\J	.	8b-\J	.	8dd-X\J	.	.	.
!	!	!	!	!	!	!LO:LB:g=original	!	!	!
=36	=36	=36	=36	=36	=36	=36	=36	=36	=36
!	!	!LO:TX:t=P:problem=mixed beam	!	!	!LO:DY:a:t=f.	!	!	!	!
8A-\L	.	8a-\L	.	8a-\L	f	8cc\L	.	2.ryy	2.ryy
8A-\	.	8A-/	.	16r	.	16r	.	.	.
.	.	.	.	16cc\Jk	.	16aa-\Jk	.	.	.
.	.	.	.	8qqb-/	.	8qqgg/	.	.	.
8A-\	.	8A-/	.	8a-\L	.	8ff\L	.	.	.
8A-\	.	8A-/	.	16r	.	16r	.	.	.
.	.	.	.	16b-\Jk	.	16gg\Jk	.	.	.
!	!	!	!	!LO:SIC:v:s=8qan/	!	!	!	!	!
.	.	.	.	8qqa-/	.	8qqff/	.	.	.
8An\	.	8An/	.	8g\L	.	8ee-\L	.	.	.
8A\J	.	8A/J	.	16r	.	16r	.	.	.
!	!	!	!	!LO:SIC:v:s=16an\Jk	!	!	!	!	!
.	.	.	.	16a-\Jk	.	16ff\Jk	.	.	.
!	!	!	!	!LO:LB:g=original	!	!	!	!	!
=37	=37	=37	=37	=37	=37	=37	=37	=37	=37
!	!	!	!	!LO:TX:t=P:problem=mixed beam	!	!	!	!	!
4B-\	.	4B-/	.	16f/LL	.	16dd\LL	.	2.ryy	2.ryy
.	.	.	.	16ff\	.	16bb-\	.	.	.
.	.	.	.	16dd\	.	16ff\	.	.	.
.	.	.	.	16ee-\JJ	.	16gg\JJ	.	.	.
4r	.	4r	.	16ff\LL	.	16aa-\LL	.	.	.
.	.	.	.	16gg\	.	16bb-\	.	.	.
.	.	.	.	16cc\	.	16ee-\	.	.	.
.	.	.	.	16dd\JJ	.	16ff\JJ	.	.	.
4r	.	4r	.	8ee-\L	.	8gg\L	.	.	.
.	.	.	.	8an\J	.	8ee-\J	.	.	.
=38	=38	=38	=38	=38	=38	=38	=38	=38	=38
4BB-/	.	4B-/	.	16b-\LL	.	16dd\LL	.	2.ryy	2.ryy
.	.	.	.	16ff\	.	16bb-'\	.	.	.
.	.	.	.	16dd\	.	16ff'\	.	.	.
.	.	.	.	16ee-\JJ	.	16gg'\JJ	.	.	.
4r	.	4r	.	16ff\LL	.	16aa-'\LL	.	.	.
.	.	.	.	16gg\	.	16bb-'\	.	.	.
.	.	.	.	16cc\	.	16ee-'\	.	.	.
.	.	.	.	16dd\JJ	.	16ff'\JJ	.	.	.
4r	.	4r	.	8ee-\L	.	8gg\L	.	.	.
.	.	.	.	8an\J	.	8ee-\J	.	.	.
=39	=39	=39	=39	=39	=39	=39	=39	=39	=39
*	*	*	*	*	*	*^	*	*	*
8B-\L	.	4B-/	.	8b-\L	.	8dd\L	4ryy	.	2.ryy	2.ryy
8B-\	.	.	.	16r	.	16r	.	.	.	.
.	.	.	.	16dd\Jk	.	16ff\Jk	.	.	.	.
8B-\	.	4r	.	4f/ 4dd	.	4bb-/	4dd\	.	.	.
8A-\	.	.	.	.	.	.	.	.	.	.
8G\	.	4r	.	4r	.	4r	4ryy	.	.	.
8F\J	.	.	.	.	.	.	.	.	.	.
*	*	*	*	*	*	*v	*v	*	*	*
=40	=40	=40	=40	=40	=40	=40	=40	=40	=40
!	!	!	!	!	!LO:DY:a:t=p.	!	!LO:DY:a	!	!
8E-\	.	8e-\L	.	8g/L	p	[>2e-/	p	2.ryy	2.ryy
8r	.	8f\	.	8f/	.	.	.	.	.
4r	.	8g\	.	8g/	.	.	.	.	.
.	.	8f\	.	8a-/	.	.	.	.	.
!	!	!	!	!	!	!LO:TX:t=P:problem=mixed beam	!	!	!
4r	.	8g\	.	8b-/	.	8e-/L]	.	.	.
.	.	8e-\J	.	8g/J	.	8ee-\J	.	.	.
!	!	!LO:LB:g=original	!	!	!	!	!	!	!
=41	=41	=41	=41	=41	=41	=41	=41	=41	=41
8BB-/	.	8B-/L	.	8f/L	.	16dd\LL	.	2.ryy	2.ryy
.	.	.	.	.	.	16cc\	.	.	.
8r	.	8c/	.	8e-/	.	16cc\	.	.	.
.	.	.	.	.	.	16b-\JJ	.	.	.
4r	.	8d/	.	8f/	.	4.b-/	.	.	.
.	.	8e-/	.	8g/	.	.	.	.	.
4r	.	8f/	.	8a-/	.	.	.	.	.
.	.	8d/J	.	8f/J	.	8a-/	.	.	.
=42	=42	=42	=42	=42	=42	=42	=42	=42	=42
8E-\	.	8e-\L	.	8g/L	.	8g/L	.	2.ryy	2.ryy
8r	.	8f\	.	8f/	.	8b-/J	.	.	.
4r	.	8g\	.	8g/	.	4r	.	.	.
.	.	8f\	.	8a-/	.	.	.	.	.
4r	.	8g\	.	8b-/	.	8r	.	.	.
.	.	8e-\J	.	8g/J	.	8ee-\	.	.	.
!LO:LB:g=original	!	!	!	!	!	!	!	!	!
=43	=43	=43	=43	=43	=43	=43	=43	=43	=43
8BB-/	.	8B-/L	.	8f/L	.	16dd\LL	.	2.ryy	2.ryy
.	.	.	.	.	.	16cc\	.	.	.
8r	.	8c/	.	8e-/	.	16cc\	.	.	.
.	.	.	.	.	.	16b-\JJ	.	.	.
4r	.	8d/	.	8f/	.	4.b-/	.	.	.
.	.	8e-/	.	8g/	.	.	.	.	.
4r	.	8f/	.	8a-/	.	.	.	.	.
.	.	8d/J	.	8f/J	.	8a-/	.	.	.
!	!	!	!	!	!	!LO:LB:g=original	!	!	!
=44	=44	=44	=44	=44	=44	=44	=44	=44	=44
!	!	!	!	!	!	!LO:TX:t=P:problem=mixed beam	!	!	!
4E-\	.	4e-\	.	8g/L	.	8g/L	.	2.ryy	2.ryy
.	.	.	.	16b-/L	.	16gg\L	f	.	.
.	.	.	.	16b-/JJ	.	16gg\JJ	.	.	.
4r	.	4r	.	16b-/LL	.	16gg\LL	.	.	.
.	.	.	.	16cc/	.	16aa-\	.	.	.
.	.	.	.	16a-/	.	16ff\	.	.	.
.	.	.	.	16a-/JJ	.	16ff\JJ	.	.	.
4r	.	4r	.	16a-/LL	.	16ff\LL	.	.	.
.	.	.	.	16b-/	.	16gg\	.	.	.
.	.	.	.	16g/	.	16ee-\	.	.	.
.	.	.	.	16g/JJ	.	16ee-\JJ	.	.	.
=45	=45	=45	=45	=45	=45	=45	=45	=45	=45
8BB-/L	p	2.B-/	fp	16g/LL	.	16ee-\LL	.	2.ryy	2.ryy
.	.	.	.	16a-/J	.	16ff\J	.	.	.
8BB-/	.	.	.	8a-/J	.	[<8ff\J	.	.	.
!	!	!	!	!LO:LB:g=original	!	!	!	!	!
=-	=-	=-	=-	=-	=-	=-	=-	=-	=-
8BB-/	.	.	.	8a-/L	.	8ff\L]	.	.	.
8BB-/	.	.	.	16cc/L	.	16aa-\L	.	.	.
.	.	.	.	16b-/JJ	.	16gg\JJ	.	.	.
8BB-/	.	.	.	16b-/LL	.	(16gg\LL	.	.	.
.	.	.	.	16a-/	.	16ff\)	.	.	.
8BB-/J	.	.	.	16g/	.	16ee-'\	.	.	.
.	.	.	.	16f/JJ	.	16dd'\JJ	.	.	.
=46	=46	=46	=46	=46	=46	=46	=46	=46	=46
!LO:TX:t=P:problem=t. 46-47 zapisane repetycją	!	!	!	!	!	!	!	!	!
4E-\	.	4B-/	.	8g/L	.	16ee-\LL	.	2.ryy	2.ryy
.	.	.	.	.	.	16gg\J	.	.	.
.	.	.	.	16b-/L	.	8gg\J	.	.	.
.	.	.	.	16b-/JJ	.	.	.	.	.
4r	.	4r	.	16b-/LL	.	16gg\LL	.	.	.
.	.	.	.	16cc/	.	16aa-\	.	.	.
.	.	.	.	16a-/	.	16ff\	.	.	.
.	.	.	.	16a-/JJ	.	16ff\JJ	.	.	.
4r	.	4r	.	16a-/LL	.	(16ff\LL	.	.	.
.	.	.	.	16b-/	.	16gg\)	.	.	.
.	.	.	.	16g/	.	16ee-'\	.	.	.
.	.	.	.	16g/JJ	.	16ee-'\JJ	.	.	.
=47	=47	=47	=47	=47	=47	=47	=47	=47	=47
!	!	!	!LO:DY:a	!	!	!	!	!	!
8BB-/L	p	2.B-/	p	16g/LL	.	(16ee-\LL	.	2.ryy	2.ryy
.	.	.	.	16a-/J	.	16ff\J)	.	.	.
8BB-/	.	.	.	8a-/J	.	8ff\J	.	.	.
8BB-/	.	.	.	8a-/L	.	8ff\L	.	.	.
8BB-/	.	.	.	16cc'/L	.	16aa-\L	.	.	.
.	.	.	.	16b-'/JJ	.	16gg\JJ	.	.	.
8BB-/	.	.	.	(16b-/LL	.	(16gg\LL	.	.	.
.	.	.	.	16a-/)	.	16ff\)	.	.	.
8BB-/J	.	.	.	16g'/	.	16ee-'\	.	.	.
.	.	.	.	16f'/JJ	.	16dd'\JJ	.	.	.
=48	=48	=48	=48	=48	=48	=48	=48	=48	=48
!	!LO:DY:a:t=f.	!	!	!	!	!LO:TX:t=P:problem=mixed beam	!	!	!
8C/L	f	8c/L	p	8e-/L	.	16ee-\LL	.	2.ryy	2.ryy
.	.	.	.	.	.	16e-/	.	.	.
8AA-/	.	8A-/	.	16a-/L	.	16cc/	.	.	.
.	.	.	.	16f/JJ	.	16a-/JJ	.	.	.
8BB-/	.	8B-/	.	4e-/	.	4g/	.	.	.
8BB-/	.	8B-/	.	.	.	.	.	.	.
8BB-/	.	8B-/	.	4d/	.	4fT/	.	.	.
8BB-/J	.	8B-/J	.	.	.	.	.	.	.
=49	=49	=49	=49	=49	=49	=49	=49	=49	=49
!	!	!	!	!	!	!	!LO:DY:a	!	!
4E-\	.	4e-\	.	4e-/	.	4G/ 4e-	p	2.ryy	2.ryy
4r	.	4r	.	4r	.	8G/L 8e-	.	.	.
.	.	.	.	.	.	16.G/L 16.e-	.	.	.
.	.	.	.	.	.	32G/JJk 32e-	.	.	.
4r	.	4r	.	4r	.	8G/L 8e-	.	.	.
.	.	.	.	.	.	8G/J 8e-	.	.	.
!	!	!	!	!	!	!LO:LB:g=original	!	!	!
=50	=50	=50	=50	=50	=50	=50	=50	=50	=50
!	!LO:DY:a	!	!	!	!	!	!	!	!
8E-\L	p	4r	.	4r	.	4B-/ 4g	.	2.ryy	2.ryy
8E-\	.	.	.	.	.	.	.	.	.
!	!	!	!LO:DY:a	!	!	!	!	!	!
8E-\	.	8G/L 8e-	p	8e-/L	.	8B-/L 8g	.	.	.
8E-\	.	8G/ 8e-	.	16.e-/L	.	16.B-/L 16.g	.	.	.
.	.	.	.	32e-/JJk	.	32B-/JJk 32g	.	.	.
8E-\	.	8G/ 8e-	.	8e-/L	.	8B-/L 8g	.	.	.
8E-\J	.	8G/J 8e-	.	8e-/J	.	8B-/J 8g	.	.	.
=51	=51	=51	=51	=51	=51	=51	=51	=51	=51
!LO:TX:t=P:problem=mixed beam	!	!LO:TX:t=P:problem=mixed beam	!LO:DY:a	!	!	!	!LO:DY:a	!	!
8E-\L	.	8e-\L	f	8B-/L 8g	.	8b-\L	f	2.ryy	2.ryy
*	*	*	*	*Xtuplet	*	*Xtuplet	*	*	*
.	.	.	.	.	.	8qqdd-X/	.	.	.
8A-\	.	8A-/	.	24a-/L	.	24cc\L	.	.	.
.	.	.	.	24g/	.	24b-\	.	.	.
.	.	.	.	24f/JJ	.	24a-\JJ	.	.	.
8B-\	.	8B-/	.	4e-/	.	4g/	.	.	.
8B-\	.	8B-/	.	.	.	.	.	.	.
8BB-/	.	8B-/	.	4d/	.	4f/	f	.	.
8BB-/J	.	8B-/J	.	.	.	.	.	.	.
=52	=52	=52	=52	=52	=52	=52	=52	=52	=52
!	!	!	!	!	!	!	!LO:DY:a	!	!
4E-\	.	4B-/	.	4e-/	.	4G/ 4e-	p	2.ryy	2.ryy
4r	.	4r	.	4r	.	8G/L 8e-	.	.	.
.	.	.	.	.	.	16.G/L 16.e-	.	.	.
.	.	.	.	.	.	32G/JJk 32e-	.	.	.
4r	.	4r	.	4r	.	8G/L 8e-	.	.	.
.	.	.	.	.	.	8G/J 8e-	.	.	.
!	!	!	!	!LO:LB:g=original	!	!	!	!	!
=53	=53	=53	=53	=53	=53	=53	=53	=53	=53
8E-\L	.	4r	.	8G/L 8e-	.	4B-/ 4g	.	2.ryy	2.ryy
!	!LO:DY:a	!	!	!	!	!	!	!	!
8E-\	p	.	.	16.e-/L	.	.	.	.	.
.	.	.	.	32e-/JJk	.	.	.	.	.
!	!	!	!LO:DY:a	!LO:N:vis=8	!	!	!	!	!
8E-\	.	8G/L 8e-	p	4e-/L	.	8B-/L 8g	.	.	.
8E-\	.	8G/ 8e-	.	.	.	16.B-/L 16.g	.	.	.
.	.	.	.	.	.	32B-/JJk 32g	.	.	.
!	!	!	!	!LO:N:vis=8	!	!	!	!	!
8E-\	.	8G/ 8e-	.	4e-/J	.	8B-/L 8g	.	.	.
8E-\J	.	8G/J 8e-	.	.	.	8B-/J 8g	.	.	.
!	!	!LO:LB:g=original	!	!	!	!	!	!	!
=54	=54	=54	=54	=54	=54	=54	=54	=54	=54
!LO:TX:t=P:problem=mixed beam	!LO:DY:a:t=f.	!LO:TX:t=P:problem=mixed beam	!	!	!	!	!LO:DY:a	!	!
8E-\L	f	8e-\L	.	8B-/L 8g	.	8b-\L	f	2.ryy	2.ryy
.	.	.	.	.	.	8qqdd-X/	.	.	.
8A-\	.	8A-/	.	24a-/L	.	24cc\L	.	.	.
.	.	.	.	24g/	.	24b-\	.	.	.
.	.	.	.	24f/JJ	.	24a-\JJ	.	.	.
8B-\	.	8B-/	.	4e-/	.	4g/	.	.	.
8B-\	.	8B-/	.	.	.	.	.	.	.
8BB-/	.	8B-/	.	4dt/	.	4fT/	.	.	.
8BB-/J	.	8B-/J	.	.	.	.	.	.	.
!LO:LB:g=original	!	!	!	!	!	!	!	!	!
=55	=55	=55	=55	=55	=55	=55	=55	=55	=55
8.E-\L	.	8.e-\L	.	8e-/L	.	8e-/L	.	2.ryy	2.ryy
.	.	.	.	16r	.	16r	.	.	.
16E-\Jk	.	16e-\Jk	.	16b-/Jk	.	16b-/Jk	.	.	.
4E-\	.	4e-\	.	4G/ 4e- 4b-	.	4e-/ 4b- 4gg	.	.	.
4r	.	4r	.	4r	.	4r	.	.	.
==	==	==	==	==	==	==	==	==	==
*-	*-	*-	*-	*-	*-	*-	*-	*-	*-
!!!system-decoration: [(s1,s2)][(s3,s4,s5,s6)]
!!!RDF**kern: < = below
!!!RDF**kern: > = above
!!!ENC: Krzysztof Stępień
!!!END: 2021-02-08
!!!ENC: Marta Chmielewska
!!!END: 2022-01-11
!!!YEC: Copyright 2022 Narodowy Instytut Fryderyka Chopina (https://polishscores.org)
!!!YEM: License CC-BY-4.0 (https://creativecommons.org/licenses/by/4.0)
